X: 34131
T: Reel Du Filou
R: reel
M: 4/4
K: Dminor
BGGG DGGG|BGAF FFCF|AcBA dcBA|AFFF AcBA|
BGGG DGGA|BGAF FFCF|FGAc BAGF|GABd AFG2||
dBBB GBBB|cAAA FAAc|BAGA BddB|cAFB FAG2|
dBBB GBBB|cAAA FAAA|cAAA dcBA|BdAd GFG2||

